X:3
T:Les filles des forges de Paimpont
R:chanson
N:p.36
B:Chanson de la Haute-Bretagne - Adolphe Orain - 1902
O:France
A:Pays Gallo
Z:<anamnese@laposte.net> -- http://anamnese.fr.st
M:2/4
L:1/8
Q:1/4=110
K:F
D | D E F G | A3B | c B A G | (F>E)D2 | F2 E D | ^C D E F | G E A G |
F E F2 | F2 E D | ^C D E F | G E A G | F>E D2 ||
W:Ce sont les fill's des forges, (bis)
W:Des forges de Paimpont,
W:Falaridon, falaridaine,
W:Des forges de Paimpont,
W:Falaridain', falaridon.
